brandFactory_export/3.Masa/Flecha arriba derecha_3Masa.svg

<?xml version="1.0" encoding="UTF-8"?>
<svg width="24px" height="24px" viewBox="0 0 24 24" version="1.1" xmlns="http://www.w3.org/2000/svg" xmlns:xlink="http://www.w3.org/1999/xlink">
    <title>3.Masa/Flecha arriba derecha_3Masa</title>
    <g id="Symbols" stroke="none" stroke-width="1" fill="none" fill-rule="evenodd">
        <g id="3.Masa/Flecha-arriba-derecha_3Masa" fill="#5CB615" fill-rule="nonzero">
            <path d="M7.94621849,22.3260504 L7.91932773,22.3260504 C7.44537815,22.3193277 6.98487395,22.0907563 6.54789916,21.6537815 L0.490756303,15.6235294 L0.470588235,15.6033613 C0.087394958,15.1865546 -0.0571428571,14.7529412 0.0369747899,14.3092437 C0.124369748,13.9058824 0.4,13.5831933 0.662184874,13.3210084 L0.678991597,13.3042017 L6.82016807,7.52941176 L3.72436975,4.43361345 L3.71428571,4.42352941 C3.33445378,4.02689076 3.22352941,3.3512605 3.45210084,2.81680672 C3.66386555,2.31932773 4.13109244,2.02352941 4.69915966,2.02352941 L19.2067227,2.02352941 C19.5428571,2 19.8453782,2.10756303 20.0672269,2.32941176 C20.2890756,2.5512605 20.3966387,2.85714286 20.3697479,3.18991597 L20.3630252,17.7647059 C20.3764706,18.2621849 20.0840336,18.7159664 19.6268908,18.9109244 C19.0789916,19.1563025 18.3663866,19.0453782 17.9394958,18.6521008 L17.9193277,18.6352941 L15.0689076,15.7815126 L9.3210084,21.6672269 L9.31428571,21.6739496 C8.88403361,22.107563 8.42352941,22.3260504 7.94621849,22.3260504 Z" id="Path"></path>
        </g>
    </g>
</svg>

<svg width="24" height="24" viewBox="0 0 24 24" xmlns="http://www.w3.org/2000/svg"><path d="M7.946 22.326H7.92c-.474-.007-.934-.235-1.371-.672L.49 15.624l-.02-.02c-.384-.417-.528-.851-.434-1.295.087-.403.363-.726.625-.988l.017-.017L6.82 7.53 3.724 4.434l-.01-.01c-.38-.397-.49-1.073-.262-1.607.212-.498.68-.793 1.247-.793h14.508c.336-.024.638.084.86.305.222.222.33.528.303.86l-.007 14.576a1.21 1.21 0 01-.736 1.146c-.548.245-1.26.134-1.688-.259l-.02-.017-2.85-2.853-5.748 5.885-.007.007c-.43.434-.89.652-1.368.652z" fill="#5CB615" fill-rule="nonzero"/></svg>
